X:34
T:GB/7c/34 Black Velvet Band
%%VWML:GB-7c-34-0
F:http://www.vwml.org/record/GB/7c/34
P:F.W. J(ekyll) & G.S.K. B(utterworth)
C:Transcribed by Simon Furey and Lewis Jones
L:1/4
M:3/4
I:linebreak $
K:Gmix
G | B c d/e/ | f d e/f/ | g G G | B c d/e/ | f d d | g2 g |$ f e d | G e e | G A B | c B A | D G ^F | G2 |]

